Newaita-dark/.places-ubuntu/32/folder-important.svg

<svg xmlns="http://www.w3.org/2000/svg" xmlns:xlink="http://www.w3.org/1999/xlink" width="32px" height="32px" viewBox="0 0 32 32" version="1.1">
<defs>
<linearGradient id="linear0" gradientUnits="userSpaceOnUse" x1="254" y1="233.5" x2="254" y2="254.667007" gradientTransform="matrix(0.062505,0,0,0.062505,0,13.439)">
<stop offset="0" style="stop-color:rgb(0%,0%,0%);stop-opacity:0.275;"/>
<stop offset="1" style="stop-color:rgb(0%,0%,0%);stop-opacity:0;"/>
</linearGradient>
<radialGradient id="radial0" gradientUnits="userSpaceOnUse" cx="450.908997" cy="189.578995" fx="450.908997" fy="189.578995" r="21.167" gradientTransform="matrix(0,-0.07813,-0.14064,0,54.115002,63.595001)">
<stop offset="0" style="stop-color:rgb(0%,0%,0%);stop-opacity:0.314;"/>
<stop offset="0.222" style="stop-color:rgb(0%,0%,0%);stop-opacity:0.275;"/>
<stop offset="1" style="stop-color:rgb(0%,0%,0%);stop-opacity:0;"/>
</radialGradient>
<radialGradient id="radial1" gradientUnits="userSpaceOnUse" cx="450.908997" cy="189.578995" fx="450.908997" fy="189.578995" r="21.167" gradientTransform="matrix(0,0.07813,0.14064,0,-22.362,-7.5275)">
<stop offset="0" style="stop-color:rgb(0%,0%,0%);stop-opacity:0.314;"/>
<stop offset="0.222" style="stop-color:rgb(0%,0%,0%);stop-opacity:0.275;"/>
<stop offset="1" style="stop-color:rgb(0%,0%,0%);stop-opacity:0;"/>
</radialGradient>
<radialGradient id="radial2" gradientUnits="userSpaceOnUse" cx="450.908997" cy="189.578995" fx="450.908997" fy="189.578995" r="21.167" gradientTransform="matrix(0,-0.07813,0.14064,0,-22.362,63.595001)">
<stop offset="0" style="stop-color:rgb(0%,0%,0%);stop-opacity:0.314;"/>
<stop offset="0.222" style="stop-color:rgb(0%,0%,0%);stop-opacity:0.275;"/>
<stop offset="1" style="stop-color:rgb(0%,0%,0%);stop-opacity:0;"/>
</radialGradient>
<radialGradient id="radial3" gradientUnits="userSpaceOnUse" cx="450.908997" cy="189.578995" fx="450.908997" fy="189.578995" r="21.167" gradientTransform="matrix(0,0.07813,-0.14064,0,54.115002,-7.5275)">
<stop offset="0" style="stop-color:rgb(0%,0%,0%);stop-opacity:0.314;"/>
<stop offset="0.222" style="stop-color:rgb(0%,0%,0%);stop-opacity:0.275;"/>
<stop offset="1" style="stop-color:rgb(0%,0%,0%);stop-opacity:0;"/>
</radialGradient>
<linearGradient id="linear1" gradientUnits="userSpaceOnUse" x1="254" y1="-147.5" x2="254" y2="-31.083" gradientTransform="matrix(0.062505,0,0,0.062505,0,13.439)">
<stop offset="0" style="stop-color:rgb(64.313728%,64.313728%,64.313728%);stop-opacity:0;"/>
<stop offset="1" style="stop-color:rgb(100%,100%,100%);stop-opacity:0.196;"/>
</linearGradient>
<linearGradient id="linear2" gradientUnits="userSpaceOnUse" x1="254" y1="233.5" x2="254" y2="-105.167" gradientTransform="matrix(0.062505,0,0,0.062505,0,13.439)">
<stop offset="0" style="stop-color:rgb(34.509805%,34.509805%,34.509805%);stop-opacity:0;"/>
<stop offset="1" style="stop-color:rgb(98.039216%,98.039216%,98.039216%);stop-opacity:0.196;"/>
</linearGradient>
<linearGradient id="linear3" gradientUnits="userSpaceOnUse" x1="254" y1="-147.5" x2="254" y2="233.5" gradientTransform="matrix(0.062505,0,0,0.062505,0,13.439)">
<stop offset="0" style="stop-color:rgb(64.313728%,64.313728%,64.313728%);stop-opacity:0;"/>
<stop offset="1" style="stop-color:rgb(100%,100%,100%);stop-opacity:0.196;"/>
</linearGradient>
</defs>
<g id="surface1">
<path style=" stroke:none;fill-rule:nonzero;fill:url(#linear0);" d="M 3.96875 28.03125 L 27.78125 28.03125 L 27.78125 29.359375 L 3.96875 29.359375 Z M 3.96875 28.03125 "/>
<path style=" stroke:none;fill-rule:nonzero;fill:url(#radial0);" d="M 27.78125 28.03125 L 30.429688 28.03125 L 30.429688 26.710938 L 27.78125 26.710938 Z M 27.78125 28.03125 "/>
<path style=" stroke:none;fill-rule:nonzero;fill:url(#radial1);" d="M 3.96875 28.03125 L 1.320312 28.03125 L 1.320312 29.359375 L 3.96875 29.359375 Z M 3.96875 28.03125 "/>
<path style=" stroke:none;fill-rule:nonzero;fill:url(#radial2);" d="M 3.96875 28.03125 L 1.320312 28.03125 L 1.320312 26.710938 L 3.96875 26.710938 Z M 3.96875 28.03125 "/>
<path style=" stroke:none;fill-rule:nonzero;fill:url(#radial3);" d="M 27.78125 28.03125 L 30.429688 28.03125 L 30.429688 29.359375 L 27.78125 29.359375 Z M 27.78125 28.03125 "/>
<path style=" stroke:none;fill-rule:nonzero;fill:rgb(43.137255%,23.921569%,38.431373%);fill-opacity:1;" d="M 7.277344 4.21875 L 28.773438 4.21875 C 29.125 4.21875 29.464844 4.359375 29.710938 4.605469 C 29.960938 4.855469 30.097656 5.191406 30.097656 5.542969 L 30.097656 10.503906 C 30.097656 11.234375 29.503906 11.828125 28.773438 11.824219 L 7.277344 11.824219 C 6.546875 11.828125 5.953125 11.234375 5.953125 10.503906 L 5.953125 5.542969 C 5.953125 4.8125 6.546875 4.21875 7.277344 4.21875 Z M 7.277344 4.21875 "/>
<path style=" stroke:none;fill-rule:nonzero;fill:url(#linear1);" d="M 7.277344 4.21875 L 28.773438 4.21875 C 29.125 4.21875 29.464844 4.359375 29.710938 4.605469 C 29.960938 4.855469 30.097656 5.191406 30.097656 5.542969 L 30.097656 10.503906 C 30.097656 11.234375 29.503906 11.828125 28.773438 11.824219 L 7.277344 11.824219 C 6.546875 11.828125 5.953125 11.234375 5.953125 10.503906 L 5.953125 5.542969 C 5.953125 4.8125 6.546875 4.21875 7.277344 4.21875 Z M 7.277344 4.21875 "/>
<path style=" stroke:none;fill-rule:nonzero;fill:rgb(90.196079%,90.196079%,90.196079%);fill-opacity:0.588;" d="M 7.277344 4.21875 C 6.925781 4.21875 6.589844 4.355469 6.339844 4.605469 C 6.089844 4.855469 5.953125 5.191406 5.953125 5.542969 L 5.953125 5.707031 C 5.953125 5.355469 6.09375 5.019531 6.339844 4.769531 C 6.589844 4.523438 6.925781 4.382812 7.277344 4.386719 L 28.773438 4.386719 C 29.125 4.382812 29.464844 4.523438 29.710938 4.769531 C 29.960938 5.019531 30.097656 5.355469 30.097656 5.707031 L 30.097656 5.542969 C 30.101562 5.191406 29.960938 4.855469 29.710938 4.605469 C 29.464844 4.355469 29.125 4.21875 28.773438 4.21875 Z M 7.277344 4.21875 "/>
<path style=" stroke:none;fill-rule:nonzero;fill:rgb(12.941177%,12.941177%,12.941177%);fill-opacity:1;" d="M 7.277344 4.125 C 6.496094 4.125 5.859375 4.761719 5.859375 5.542969 L 5.859375 10.503906 C 5.859375 10.878906 6.007812 11.242188 6.273438 11.507812 C 6.539062 11.773438 6.902344 11.921875 7.277344 11.921875 L 28.773438 11.921875 C 29.152344 11.921875 29.511719 11.773438 29.777344 11.507812 C 30.042969 11.242188 30.191406 10.878906 30.191406 10.503906 L 30.191406 5.542969 C 30.191406 4.761719 29.558594 4.125 28.773438 4.125 Z M 7.277344 4.3125 L 28.773438 4.3125 C 29.101562 4.3125 29.414062 4.441406 29.644531 4.671875 C 29.878906 4.902344 30.007812 5.214844 30.003906 5.542969 L 30.003906 10.503906 C 30.007812 10.832031 29.875 11.144531 29.644531 11.375 C 29.414062 11.605469 29.101562 11.734375 28.773438 11.734375 L 7.277344 11.734375 C 6.949219 11.734375 6.636719 11.605469 6.40625 11.375 C 6.175781 11.144531 6.046875 10.832031 6.046875 10.503906 L 6.046875 5.542969 C 6.046875 5.214844 6.175781 4.902344 6.40625 4.671875 C 6.636719 4.441406 6.949219 4.3125 7.277344 4.3125 Z M 7.277344 4.3125 "/>
<path style=" stroke:none;fill-rule:nonzero;fill:rgb(89.411765%,42.745098%,26.274511%);fill-opacity:1;" d="M 2.648438 6.863281 C 2.296875 6.863281 1.957031 7.003906 1.710938 7.25 C 1.460938 7.5 1.320312 7.835938 1.324219 8.1875 L 1.324219 26.710938 C 1.320312 27.0625 1.460938 27.398438 1.710938 27.648438 C 1.957031 27.894531 2.296875 28.035156 2.648438 28.03125 L 29.109375 28.03125 C 29.457031 28.035156 29.796875 27.894531 30.042969 27.648438 C 30.292969 27.398438 30.429688 27.0625 30.429688 26.710938 L 30.429688 10.171875 L 12.570312 10.171875 C 12.21875 10.171875 11.878906 10.035156 11.632812 9.785156 C 11.382812 9.539062 11.246094 9.199219 11.246094 8.847656 L 11.246094 6.863281 Z M 2.648438 6.863281 "/>
<path style=" stroke:none;fill-rule:nonzero;fill:url(#linear2);" d="M 2.648438 6.863281 C 2.296875 6.863281 1.957031 7.003906 1.710938 7.25 C 1.460938 7.5 1.320312 7.835938 1.324219 8.1875 L 1.324219 26.710938 C 1.320312 27.0625 1.460938 27.398438 1.710938 27.648438 C 1.957031 27.894531 2.296875 28.035156 2.648438 28.03125 L 29.109375 28.03125 C 29.457031 28.035156 29.796875 27.894531 30.042969 27.648438 C 30.292969 27.398438 30.429688 27.0625 30.429688 26.710938 L 30.429688 10.171875 L 12.570312 10.171875 C 12.21875 10.171875 11.878906 10.035156 11.632812 9.785156 C 11.382812 9.539062 11.246094 9.199219 11.246094 8.847656 L 11.246094 6.863281 Z M 2.648438 6.863281 "/>
<path style=" stroke:none;fill-rule:nonzero;fill:rgb(0%,0%,0%);fill-opacity:0.196;" d="M 2.648438 28.03125 C 2.296875 28.035156 1.957031 27.894531 1.710938 27.648438 C 1.460938 27.398438 1.320312 27.0625 1.324219 26.710938 L 1.324219 26.546875 C 1.320312 26.894531 1.460938 27.234375 1.710938 27.480469 C 1.957031 27.730469 2.296875 27.871094 2.648438 27.867188 L 29.109375 27.867188 C 29.457031 27.871094 29.796875 27.730469 30.042969 27.480469 C 30.292969 27.234375 30.429688 26.894531 30.429688 26.546875 L 30.429688 26.710938 C 30.429688 27.0625 30.292969 27.398438 30.042969 27.648438 C 29.796875 27.894531 29.457031 28.035156 29.109375 28.03125 Z M 2.648438 28.03125 "/>
<path style=" stroke:none;fill-rule:nonzero;fill:rgb(90.196079%,90.196079%,90.196079%);fill-opacity:0.937;" d="M 2.648438 6.863281 C 2.296875 6.863281 1.957031 7.003906 1.710938 7.25 C 1.460938 7.5 1.320312 7.835938 1.324219 8.1875 L 1.324219 8.351562 C 1.320312 8.003906 1.460938 7.664062 1.710938 7.417969 C 1.957031 7.167969 2.296875 7.03125 2.648438 7.03125 L 11.246094 7.03125 L 11.246094 6.863281 Z M 12.488281 10.257812 C 12.136719 10.257812 11.796875 10.117188 11.550781 9.867188 C 11.300781 9.621094 11.164062 9.28125 11.164062 8.929688 L 11.164062 8.765625 C 11.164062 9.117188 11.300781 9.457031 11.550781 9.703125 C 11.796875 9.953125 12.136719 10.089844 12.488281 10.089844 L 30.429688 10.089844 L 30.429688 10.257812 Z M 12.488281 10.257812 "/>
<path style=" stroke:none;fill-rule:nonzero;fill:rgb(12.941177%,12.941177%,12.941177%);fill-opacity:1;" d="M 2.648438 6.773438 C 2.269531 6.769531 1.910156 6.917969 1.644531 7.183594 C 1.378906 7.449219 1.226562 7.8125 1.226562 8.1875 L 1.226562 26.710938 C 1.226562 27.085938 1.378906 27.449219 1.644531 27.714844 C 1.910156 27.980469 2.269531 28.128906 2.648438 28.128906 L 29.109375 28.128906 C 29.484375 28.128906 29.84375 27.976562 30.109375 27.710938 C 30.375 27.445312 30.523438 27.085938 30.523438 26.710938 L 30.523438 9.984375 L 12.570312 9.984375 C 12.242188 9.984375 11.929688 9.855469 11.699219 9.625 C 11.46875 9.394531 11.339844 9.082031 11.339844 8.757812 L 11.339844 6.773438 Z M 2.648438 6.960938 L 11.152344 6.960938 L 11.152344 8.757812 C 11.152344 9.132812 11.300781 9.492188 11.566406 9.757812 C 11.832031 10.023438 12.191406 10.171875 12.570312 10.171875 L 30.335938 10.171875 L 30.335938 26.710938 C 30.335938 27.039062 30.207031 27.351562 29.976562 27.582031 C 29.746094 27.8125 29.433594 27.941406 29.109375 27.941406 L 2.648438 27.941406 C 2.320312 27.941406 2.007812 27.8125 1.777344 27.582031 C 1.542969 27.351562 1.414062 27.039062 1.414062 26.710938 L 1.414062 8.1875 C 1.414062 7.859375 1.542969 7.546875 1.777344 7.316406 C 2.007812 7.085938 2.320312 6.957031 2.648438 6.960938 Z M 2.648438 6.960938 "/>
<path style=" stroke:none;fill-rule:nonzero;fill:rgb(43.137255%,23.921569%,38.431373%);fill-opacity:1;" d="M 15.214844 12.808594 C 15.039062 12.808594 14.871094 12.878906 14.746094 13 C 14.621094 13.125 14.550781 13.292969 14.550781 13.46875 L 14.550781 19.421875 C 14.550781 19.789062 14.847656 20.085938 15.214844 20.085938 L 16.535156 20.085938 C 16.710938 20.085938 16.878906 20.015625 17.003906 19.890625 C 17.128906 19.765625 17.199219 19.597656 17.199219 19.425781 L 17.199219 13.46875 C 17.199219 13.101562 16.902344 12.808594 16.535156 12.808594 Z M 15.214844 21.410156 C 15.039062 21.40625 14.871094 21.476562 14.746094 21.601562 C 14.621094 21.726562 14.550781 21.894531 14.550781 22.070312 L 14.550781 22.730469 C 14.550781 23.097656 14.847656 23.390625 15.214844 23.390625 L 16.535156 23.390625 C 16.710938 23.394531 16.882812 23.324219 17.003906 23.199219 C 17.128906 23.074219 17.199219 22.90625 17.199219 22.730469 L 17.199219 22.070312 C 17.199219 21.703125 16.902344 21.410156 16.535156 21.410156 Z M 15.214844 21.410156 "/>
<path style=" stroke:none;fill-rule:nonzero;fill:url(#linear3);" d="M 15.214844 12.808594 C 15.039062 12.808594 14.871094 12.878906 14.746094 13 C 14.621094 13.125 14.550781 13.292969 14.550781 13.46875 L 14.550781 19.421875 C 14.550781 19.789062 14.847656 20.085938 15.214844 20.085938 L 16.535156 20.085938 C 16.710938 20.085938 16.878906 20.015625 17.003906 19.890625 C 17.128906 19.765625 17.199219 19.597656 17.199219 19.425781 L 17.199219 13.46875 C 17.199219 13.101562 16.902344 12.808594 16.535156 12.808594 Z M 15.214844 21.410156 C 15.039062 21.40625 14.871094 21.476562 14.746094 21.601562 C 14.621094 21.726562 14.550781 21.894531 14.550781 22.070312 L 14.550781 22.730469 C 14.550781 23.097656 14.847656 23.390625 15.214844 23.390625 L 16.535156 23.390625 C 16.710938 23.394531 16.882812 23.324219 17.003906 23.199219 C 17.128906 23.074219 17.199219 22.90625 17.199219 22.730469 L 17.199219 22.070312 C 17.199219 21.703125 16.902344 21.410156 16.535156 21.410156 Z M 15.214844 21.410156 "/>
<path style=" stroke:none;fill-rule:nonzero;fill:rgb(12.941177%,12.941177%,12.941177%);fill-opacity:1;" d="M 15.214844 12.714844 C 14.800781 12.714844 14.460938 13.050781 14.460938 13.46875 L 14.460938 19.425781 C 14.460938 19.839844 14.800781 20.175781 15.214844 20.175781 L 16.535156 20.175781 C 16.953125 20.179688 17.292969 19.839844 17.292969 19.425781 L 17.292969 13.46875 C 17.292969 13.050781 16.953125 12.714844 16.535156 12.714844 Z M 15.214844 12.902344 L 16.535156 12.902344 C 16.851562 12.902344 17.105469 13.152344 17.105469 13.46875 L 17.105469 19.425781 C 17.105469 19.574219 17.046875 19.71875 16.9375 19.824219 C 16.832031 19.933594 16.6875 19.992188 16.535156 19.988281 L 15.214844 19.988281 C 15.0625 19.992188 14.917969 19.933594 14.8125 19.824219 C 14.707031 19.71875 14.644531 19.574219 14.648438 19.425781 L 14.648438 13.46875 C 14.648438 13.152344 14.898438 12.902344 15.214844 12.902344 Z M 15.214844 21.316406 C 14.800781 21.316406 14.460938 21.652344 14.460938 22.070312 L 14.460938 22.730469 C 14.460938 23.148438 14.800781 23.488281 15.214844 23.488281 L 16.535156 23.488281 C 16.953125 23.488281 17.292969 23.148438 17.292969 22.730469 L 17.292969 22.070312 C 17.292969 21.652344 16.953125 21.3125 16.535156 21.316406 Z M 15.214844 21.503906 L 16.535156 21.503906 C 16.6875 21.5 16.832031 21.558594 16.9375 21.667969 C 17.046875 21.773438 17.105469 21.917969 17.105469 22.070312 L 17.105469 22.730469 C 17.105469 22.882812 17.046875 23.027344 16.941406 23.132812 C 16.832031 23.242188 16.6875 23.300781 16.535156 23.300781 L 15.214844 23.300781 C 15.0625 23.300781 14.917969 23.242188 14.8125 23.132812 C 14.707031 23.027344 14.644531 22.882812 14.648438 22.730469 L 14.648438 22.070312 C 14.644531 21.917969 14.707031 21.773438 14.8125 21.667969 C 14.917969 21.558594 15.0625 21.5 15.214844 21.503906 Z M 15.214844 21.503906 "/>
</g>
</svg>

<svg xmlns="http://www.w3.org/2000/svg" width="32pt" height="32pt" viewBox="0 0 32 32"><defs><linearGradient id="a" gradientUnits="userSpaceOnUse" x1="254" y1="233.5" x2="254" y2="254.667" gradientTransform="matrix(.0625 0 0 .0625 0 13.439)"><stop offset="0" stop-opacity=".275"/><stop offset="1" stop-opacity="0"/></linearGradient><radialGradient id="b" gradientUnits="userSpaceOnUse" cx="450.909" cy="189.579" fx="450.909" fy="189.579" r="21.167" gradientTransform="matrix(0 -.07813 -.14064 0 54.115 63.595)"><stop offset="0" stop-opacity=".314"/><stop offset=".222" stop-opacity=".275"/><stop offset="1" stop-opacity="0"/></radialGradient><radialGradient id="c" gradientUnits="userSpaceOnUse" cx="450.909" cy="189.579" fx="450.909" fy="189.579" r="21.167" gradientTransform="matrix(0 .07813 .14064 0 -22.362 -7.527)"><stop offset="0" stop-opacity=".314"/><stop offset=".222" stop-opacity=".275"/><stop offset="1" stop-opacity="0"/></radialGradient><radialGradient id="d" gradientUnits="userSpaceOnUse" cx="450.909" cy="189.579" fx="450.909" fy="189.579" r="21.167" gradientTransform="matrix(0 -.07813 .14064 0 -22.362 63.595)"><stop offset="0" stop-opacity=".314"/><stop offset=".222" stop-opacity=".275"/><stop offset="1" stop-opacity="0"/></radialGradient><radialGradient id="e" gradientUnits="userSpaceOnUse" cx="450.909" cy="189.579" fx="450.909" fy="189.579" r="21.167" gradientTransform="matrix(0 .07813 -.14064 0 54.115 -7.527)"><stop offset="0" stop-opacity=".314"/><stop offset=".222" stop-opacity=".275"/><stop offset="1" stop-opacity="0"/></radialGradient><linearGradient id="f" gradientUnits="userSpaceOnUse" x1="254" y1="-147.5" x2="254" y2="-31.083" gradientTransform="matrix(.0625 0 0 .0625 0 13.439)"><stop offset="0" stop-color="#a4a4a4" stop-opacity="0"/><stop offset="1" stop-color="#fff" stop-opacity=".196"/></linearGradient><linearGradient id="g" gradientUnits="userSpaceOnUse" x1="254" y1="233.5" x2="254" y2="-105.167" gradientTransform="matrix(.0625 0 0 .0625 0 13.439)"><stop offset="0" stop-color="#585858" stop-opacity="0"/><stop offset="1" stop-color="#fafafa" stop-opacity=".196"/></linearGradient><linearGradient id="h" gradientUnits="userSpaceOnUse" x1="254" y1="-147.5" x2="254" y2="233.5" gradientTransform="matrix(.0625 0 0 .0625 0 13.439)"><stop offset="0" stop-color="#a4a4a4" stop-opacity="0"/><stop offset="1" stop-color="#fff" stop-opacity=".196"/></linearGradient></defs><path d="M3.969 28.035h23.816v1.32H3.97zm0 0" fill="url(#a)"/><path d="M27.785 28.035h2.645v-1.324h-2.645zm0 0" fill="url(#b)"/><path d="M3.969 28.035H1.324v1.32H3.97zm0 0" fill="url(#c)"/><path d="M3.969 28.035H1.324v-1.324H3.97zm0 0" fill="url(#d)"/><path d="M27.785 28.035h2.645v1.32h-2.645zm0 0" fill="url(#e)"/><path d="M7.277 4.219h21.5c.73 0 1.32.593 1.32 1.324v4.96c0 .731-.59 1.325-1.32 1.325h-21.5c-.73 0-1.324-.594-1.324-1.324V5.543c0-.73.594-1.324 1.324-1.324zm0 0" fill="#6e3d62"/><path d="M7.277 4.219h21.5c.73 0 1.32.593 1.32 1.324v4.96c0 .731-.59 1.325-1.32 1.325h-21.5c-.73 0-1.324-.594-1.324-1.324V5.543c0-.73.594-1.324 1.324-1.324zm0 0" fill="url(#f)"/><path d="M7.277 4.219a1.32 1.32 0 0 0-1.324 1.324v.164c0-.734.59-1.324 1.324-1.324h21.5c.73 0 1.32.59 1.32 1.324v-.164a1.32 1.32 0 0 0-1.32-1.324zm0 0" fill="#e6e6e6" fill-opacity=".588"/><path d="M7.277 4.125c-.785 0-1.418.633-1.418 1.418v4.96c0 .782.633 1.419 1.418 1.419h21.5c.782 0 1.414-.637 1.414-1.418V5.543c0-.785-.632-1.418-1.414-1.418zm0 .188h21.5c.68 0 1.227.546 1.227 1.23v4.96c0 .684-.547 1.231-1.227 1.231h-21.5c-.683 0-1.23-.546-1.23-1.23V5.543c0-.684.547-1.23 1.23-1.23zm0 0" fill="#212121"/><path d="M2.645 6.863c-.73 0-1.32.594-1.32 1.324v18.524c0 .734.59 1.324 1.32 1.324h26.46a1.32 1.32 0 0 0 1.325-1.324V10.17H12.57a1.32 1.32 0 0 1-1.324-1.32V6.864zm0 0" fill="#e46d43"/><path d="M2.645 6.863c-.73 0-1.32.594-1.32 1.324v18.524c0 .734.59 1.324 1.32 1.324h26.46a1.32 1.32 0 0 0 1.325-1.324V10.17H12.57a1.32 1.32 0 0 1-1.324-1.32V6.864zm0 0" fill="url(#g)"/><path d="M2.645 28.035c-.73 0-1.32-.59-1.32-1.324v-.164c0 .73.59 1.32 1.32 1.32h26.46a1.32 1.32 0 0 0 1.325-1.32v.164a1.32 1.32 0 0 1-1.325 1.324zm0 0" fill-opacity=".196"/><path d="M2.645 6.863c-.73 0-1.32.594-1.32 1.324v.168c0-.734.59-1.324 1.32-1.324h8.601v-.168zm0 0M12.484 10.254c-.73 0-1.32-.59-1.32-1.32v-.168c0 .734.59 1.324 1.32 1.324H30.43v.164zm0 0" fill="#e6e6e6" fill-opacity=".937"/><path d="M2.645 6.77c-.782 0-1.415.636-1.415 1.418V26.71c0 .785.633 1.418 1.415 1.418h26.46c.786 0 1.418-.633 1.418-1.418V9.984H12.57c-.683 0-1.23-.546-1.23-1.226V6.77zm0 .19h8.507v1.798c0 .781.633 1.414 1.418 1.414h17.766V26.71c0 .684-.547 1.23-1.23 1.23H2.644c-.68 0-1.227-.546-1.227-1.23V8.188c0-.684.547-1.227 1.227-1.227zm0 0" fill="#212121"/><path d="M15.215 12.809a.657.657 0 0 0-.66.66v5.953a.66.66 0 0 0 .66.664h1.324a.66.66 0 0 0 .66-.664v-5.953a.657.657 0 0 0-.66-.66zm0 8.597a.66.66 0 0 0-.66.664v.66c0 .368.293.66.66.66h1.324c.367 0 .66-.292.66-.66v-.66a.66.66 0 0 0-.66-.664zm0 0" fill="#6e3d62"/><path d="M15.215 12.809a.657.657 0 0 0-.66.66v5.953a.66.66 0 0 0 .66.664h1.324a.66.66 0 0 0 .66-.664v-5.953a.657.657 0 0 0-.66-.66zm0 8.597a.66.66 0 0 0-.66.664v.66c0 .368.293.66.66.66h1.324c.367 0 .66-.292.66-.66v-.66a.66.66 0 0 0-.66-.664zm0 0" fill="url(#h)"/><path d="M15.215 12.715a.752.752 0 0 0-.754.754v5.953c0 .418.336.758.754.758h1.324c.414 0 .754-.34.754-.758v-5.953a.754.754 0 0 0-.754-.754zm0 .187h1.324c.316 0 .566.25.566.567v5.953c0 .316-.25.57-.566.57h-1.324a.565.565 0 0 1-.567-.57v-5.953c0-.317.25-.567.567-.567zm0 8.41a.755.755 0 0 0-.754.758v.66c0 .418.336.754.754.754h1.324a.754.754 0 0 0 .754-.754v-.66a.758.758 0 0 0-.754-.758zm0 .188h1.324c.316 0 .566.254.566.57v.66c0 .317-.25.567-.566.567h-1.324a.562.562 0 0 1-.567-.567v-.66c0-.316.25-.57.567-.57zm0 0" fill="#212121"/></svg>
